source/broadcast.svg

<svg width="24" height="24" viewBox="0 0 24 24" fill="none" xmlns="http://www.w3.org/2000/svg">
<path fill-rule="evenodd" clip-rule="evenodd" d="M8.97754 12.049C8.97754 10.3814 10.333 9.03345 12.0002 9.03345C13.6674 9.03345 15.023 10.3814 15.023 12.049C15.023 13.7168 13.6674 15.0647 12.0002 15.0647C10.333 15.0647 8.97754 13.7168 8.97754 12.049ZM12.0002 10.5334C11.157 10.5334 10.4775 11.2142 10.4775 12.049C10.4775 12.8839 11.1571 13.5647 12.0002 13.5647C12.8434 13.5647 13.523 12.8839 13.523 12.049C13.523 11.2142 12.8435 10.5334 12.0002 10.5334Z" fill="#1C1B1F"/>
<path fill-rule="evenodd" clip-rule="evenodd" d="M8.54865 6.98866C8.83105 7.29167 8.81435 7.76625 8.51133 8.04866C6.16289 10.2374 6.16289 13.7626 8.51133 15.9513C8.81435 16.2338 8.83105 16.7083 8.54865 17.0113C8.26624 17.3144 7.79166 17.3311 7.48864 17.0487C4.50379 14.2668 4.50379 9.73321 7.48864 6.95134C7.79166 6.66894 8.26624 6.68564 8.54865 6.98866Z" fill="#1C1B1F"/>
<path fill-rule="evenodd" clip-rule="evenodd" d="M15.4513 6.98866C15.7338 6.68564 16.2083 6.66894 16.5113 6.95134C19.4962 9.73321 19.4962 14.2668 16.5113 17.0487C16.2083 17.3311 15.7338 17.3144 15.4513 17.0113C15.1689 16.7083 15.1856 16.2338 15.4887 15.9513C17.8371 13.7626 17.8371 10.2374 15.4887 8.04866C15.1856 7.76625 15.1689 7.29167 15.4513 6.98866Z" fill="#1C1B1F"/>
<path fill-rule="evenodd" clip-rule="evenodd" d="M5.53929 4.47878C5.82715 4.77662 5.81906 5.25142 5.52122 5.53929C1.82626 9.11047 1.82626 14.8895 5.52122 18.4607C5.81906 18.7486 5.82715 19.2234 5.53929 19.5212C5.25142 19.8191 4.77662 19.8271 4.47878 19.5393C0.17374 15.3785 0.17374 8.62154 4.47878 4.46071C4.77662 4.17285 5.25142 4.18094 5.53929 4.47878Z" fill="#1C1B1F"/>
<path fill-rule="evenodd" clip-rule="evenodd" d="M18.5401 4.4705C18.8326 4.17715 19.3074 4.17641 19.6008 4.46884C23.8 8.65497 23.8 15.443 19.6008 19.6291C19.3074 19.9215 18.8326 19.9208 18.5401 19.6274C18.2477 19.3341 18.2484 18.8592 18.5418 18.5668C22.153 14.9668 22.153 9.13113 18.5418 5.53116C18.2484 5.23872 18.2477 4.76385 18.5401 4.4705Z" fill="#1C1B1F"/>
</svg>

<svg xmlns="http://www.w3.org/2000/svg" width="24" height="24" fill="none" viewBox="0 0 24 24">
  <path fill="#1C1B1F" fill-rule="evenodd" d="M8.978 12.049A3.02 3.02 0 0 1 12 9.033a3.02 3.02 0 0 1 3.023 3.016A3.02 3.02 0 0 1 12 15.065a3.02 3.02 0 0 1-3.022-3.016ZM12 10.533a1.52 1.52 0 0 0-1.523 1.516c0 .835.68 1.516 1.523 1.516a1.52 1.52 0 0 0 1.523-1.516A1.52 1.52 0 0 0 12 10.533ZM8.549 6.989a.75.75 0 0 1-.038 1.06c-2.348 2.188-2.348 5.714 0 7.902A.75.75 0 0 1 7.49 17.05c-2.985-2.782-2.985-7.316 0-10.098a.75.75 0 0 1 1.06.038Zm6.902 0a.75.75 0 0 1 1.06-.038c2.985 2.782 2.985 7.316 0 10.098a.75.75 0 1 1-1.022-1.098c2.348-2.188 2.348-5.714 0-7.902a.75.75 0 0 1-.038-1.06Z" clip-rule="evenodd"/>
  <path fill="#1C1B1F" fill-rule="evenodd" d="M5.54 4.479a.75.75 0 0 1-.019 1.06c-3.695 3.571-3.695 9.35 0 12.922a.75.75 0 0 1-1.042 1.078C.174 15.38.174 8.622 4.479 4.461a.75.75 0 0 1 1.06.018Zm13-.009a.75.75 0 0 1 1.06-.001 10.697 10.697 0 0 1 0 15.16.75.75 0 0 1-1.058-1.062 9.197 9.197 0 0 0 0-13.036.75.75 0 0 1-.002-1.06Z" clip-rule="evenodd"/>
</svg>
